X:153
T:The lame fisherman
T:The jolly clam diggers
R:Reel
O:Ireland
B:O'Neill's 1198
B:Kerr's Second p33 (Same vsn., but doubled...)
S:O'Neill's 1198
Z:Transcription, minor arr., chords:Mike Long
M:C|
L:1/8
K:D
(3(ABc)|\
"D"d2"A"(FG) "D"A2(3(def)|"G"gfed "A"fdBc|"D"d2"A"FG "D"A2AB|"A"AFEG "D"FDDc|\
"D"d2"A"FG "D"A2(3(def)|
"G"gfed "A"fdBc|"D"d2"A"FG "D"A2de|"A"faef "D"d2:|\
|:(3(efg)|\
"D"af"G"bf "D"afdf|"G"gfed "A"cd (3(efg)|
"D"af"G"bf "D"afdf|"A"abag "D"fd (3(efg)|\
"D"af"G"bf "D"afdf|"G"gfed "A"fdBc|"D"dA"A"FG "D"A2(de)|"A"faef "D"d2:|
